X: 121
T: Pollonesse #121
M: 3/4
L: 1/16
R: Pollonesse
K: F
Q: 110
F2A2 cBAG F2A2|c2e2 gfed c4|c4b2a2 g2f2|efed cdcB ABAG|
|F2A2 cBAG F2A2|c2e2 gfed c4|c4b2a2 g2f2|efga g4f4:|
|:f2af c2cd c4|dcBA B2Bc B4|ABAG F2FG A2B2|cdcB c2cd e2c2|
|f2af c2cd c4|dcBA B2Bc B4|B2A2 B2c2 dcBA|cBAG G4F4:|

